gama.ui.shared/icons_svg/dark/editor/open.declaration.svg

<svg height="25" viewBox="-130.483 -3263.748 25 25" width="25" xmlns="http://www.w3.org/2000/svg"><g fill="none"><path d="m-126.14272-3263.248h16.32c2.12077 0 3.84 1.719 3.84 3.84v16.32c0 2.1207-1.71923 3.84-3.84 3.84h-16.32c-2.12078 0-3.84-1.7193-3.84-3.84v-16.32c0-2.121 1.71922-3.84 3.84-3.84z" fill="#666"/><path d="m-126.14272-3263.248h16.32c2.12077 0 3.84 1.719 3.84 3.84v16.32c0 2.1207-1.71923 3.84-3.84 3.84h-16.32c-2.12078 0-3.84-1.7193-3.84-3.84v-16.32c0-2.121 1.71922-3.84 3.84-3.84z" stroke="#fff" stroke-linecap="round" stroke-linejoin="round" stroke-width=".25"/><path d="m-120.39161-3254.799-1.90222-1.9113c-.17778-.1777-.17778-.4533 0-.6311.17777-.1776.45333-.1776.63111 0l2.66666 2.6667c.17778.1777.17778.4533 0 .6311l-2.66666 2.6666c-.17778.178-.45334.178-.63111 0-.17778-.1777-.17778-.4533 0-.631l1.91111-1.911h-3.36889c-.73778 0-1.33333.5954-1.33333 1.333v5.3335c0 .7378.59555 1.3335 1.33333 1.3335h4.44444c.24889 0 .44445.1954.44445.4443 0 .2487-.19556.4444-.44445.4444h-4.45333c-1.22667 0-2.22222-.9957-2.22222-2.2222v-5.3335c0-1.2265.99555-2.222 2.22222-2.222h3.36889zm3.74222.8887c-.24889 0-.44444-.1957-.44444-.4444 0-.2489.19555-.4443.44444-.4443h6.22222c.24889 0 .44445.1954.44445.4443 0 .2487-.19556.4444-.44445.4444zm0 4.4443c-.24889 0-.44444-.1954-.44444-.4443 0-.2487.19555-.4444.44444-.4444h6.22222c.24889 0 .44445.1957.44445.4444 0 .2489-.19556.4443-.44445.4443zm0 4.4446c-.24889 0-.44444-.1956-.44444-.4446 0-.2487.19555-.4443.44444-.4443h6.22222c.24889 0 .44445.1956.44445.4443 0 .249-.19556.4446-.44445.4446z" fill="#c0e0ff"/></g></svg>

<?xml version="1.0" encoding="UTF-8" standalone="no"?>
<!DOCTYPE svg PUBLIC "-//W3C//DTD SVG 1.1//EN" "http://www.w3.org/Graphics/SVG/1.1/DTD/svg11.dtd">
<svg xmlns="http://www.w3.org/2000/svg" xmlns:xl="http://www.w3.org/1999/xlink" version="1.1" xmlns:dc="http://purl.org/dc/elements/1.1/" viewBox="-130.48272 -3263.748 25 25" width="25" height="25">
  <defs/>
  <g id="SOURCES" stroke-opacity="1" fill="none" stroke="none" fill-opacity="1" stroke-dasharray="none">
    <title>SOURCES</title>
    <g id="SOURCES_Dark">
      <title>Dark</title>
      <g id="Graphic_10955">
        <path d="M -126.14272 -3263.248 L -109.82272 -3263.248 C -107.70195 -3263.248 -105.98272 -3261.529 -105.98272 -3259.408 L -105.98272 -3243.088 C -105.98272 -3240.9673 -107.70195 -3239.248 -109.82272 -3239.248 L -126.14272 -3239.248 C -128.2635 -3239.248 -129.98272 -3240.9673 -129.98272 -3243.088 L -129.98272 -3259.408 C -129.98272 -3261.529 -128.2635 -3263.248 -126.14272 -3263.248 Z" fill="#666"/>
        <path d="M -126.14272 -3263.248 L -109.82272 -3263.248 C -107.70195 -3263.248 -105.98272 -3261.529 -105.98272 -3259.408 L -105.98272 -3243.088 C -105.98272 -3240.9673 -107.70195 -3239.248 -109.82272 -3239.248 L -126.14272 -3239.248 C -128.2635 -3239.248 -129.98272 -3240.9673 -129.98272 -3243.088 L -129.98272 -3259.408 C -129.98272 -3261.529 -128.2635 -3263.248 -126.14272 -3263.248 Z" stroke="white" stroke-linecap="round" stroke-linejoin="round" stroke-width=".25"/>
      </g>
      <g id="Graphic_10954">
        <path d="M -120.39161 -3254.799 L -122.29383 -3256.7103 C -122.47161 -3256.888 -122.47161 -3257.1636 -122.29383 -3257.3414 C -122.11606 -3257.519 -121.8405 -3257.519 -121.66272 -3257.3414 L -118.99606 -3254.6747 C -118.81828 -3254.497 -118.81828 -3254.2214 -118.99606 -3254.0436 L -121.66272 -3251.377 C -121.8405 -3251.199 -122.11606 -3251.199 -122.29383 -3251.377 C -122.47161 -3251.5547 -122.47161 -3251.8303 -122.29383 -3252.008 L -120.38272 -3253.919 L -123.75161 -3253.919 C -124.48939 -3253.919 -125.08494 -3253.3236 -125.08494 -3252.586 L -125.08494 -3247.2525 C -125.08494 -3246.5147 -124.48939 -3245.919 -123.75161 -3245.919 L -119.30717 -3245.919 C -119.05828 -3245.919 -118.86272 -3245.7236 -118.86272 -3245.4747 C -118.86272 -3245.226 -119.05828 -3245.0303 -119.30717 -3245.0303 L -123.7605 -3245.0303 C -124.98717 -3245.0303 -125.98272 -3246.026 -125.98272 -3247.2525 L -125.98272 -3252.586 C -125.98272 -3253.8125 -124.98717 -3254.808 -123.7605 -3254.808 L -120.39161 -3254.808 Z M -116.64939 -3253.9103 C -116.89828 -3253.9103 -117.09383 -3254.106 -117.09383 -3254.3547 C -117.09383 -3254.6036 -116.89828 -3254.799 -116.64939 -3254.799 L -110.42717 -3254.799 C -110.17828 -3254.799 -109.98272 -3254.6036 -109.98272 -3254.3547 C -109.98272 -3254.106 -110.17828 -3253.9103 -110.42717 -3253.9103 Z M -116.64939 -3249.466 C -116.89828 -3249.466 -117.09383 -3249.6614 -117.09383 -3249.9103 C -117.09383 -3250.159 -116.89828 -3250.3547 -116.64939 -3250.3547 L -110.42717 -3250.3547 C -110.17828 -3250.3547 -109.98272 -3250.159 -109.98272 -3249.9103 C -109.98272 -3249.6614 -110.17828 -3249.466 -110.42717 -3249.466 Z M -116.64939 -3245.0214 C -116.89828 -3245.0214 -117.09383 -3245.217 -117.09383 -3245.466 C -117.09383 -3245.7147 -116.89828 -3245.9103 -116.64939 -3245.9103 L -110.42717 -3245.9103 C -110.17828 -3245.9103 -109.98272 -3245.7147 -109.98272 -3245.466 C -109.98272 -3245.217 -110.17828 -3245.0214 -110.42717 -3245.0214 Z" fill="#c0e0ff"/>
      </g>
    </g>
  </g>
</svg>
